X: 211
T: My Johnny Dear
B: O'Neill's 211
N: "Moderate"
N: "Collected by J.O'Neill"
Z: 1997 by John Chambers <jc@trillian.mit.edu>
M: 2/4
L: 1/8
K:D
"mf"(D/E/) \
| FF F(E/D/) | A>F AB | AA .A(F/D/) | E3 (D/E/) |
| FF .F(E/D/) | (A>F) "p"(AB) | (A/F/)(E/>F/) D"pp"D | D3 ||
|| A/B//c// \
| (d>e) dc | (B>A) Bc | BA .A(F/D/) | E3 (D/E/) |
| FF .F(E/D/) | (A>F) "p"(AB) | (A/F/)(E/>F/) D"pp"D | D3 ||


